packages/react/src/components/base/Icon/assets/icon-login.svg

<svg width="24" height="24" viewBox="0 0 24 24" xmlns="http://www.w3.org/2000/svg" fill="currentColor"> <path d="M15.0459 12.7959L11.2959 16.5459C11.0846 16.7573 10.7979 16.876 10.4991 16.876C10.2002 16.876 9.91353 16.7573 9.70219 16.5459C9.49084 16.3346 9.37211 16.0479 9.37211 15.7491C9.37211 15.4502 9.49084 15.1635 9.70219 14.9522L11.5312 13.125H3.75C3.45163 13.125 3.16548 13.0065 2.9545 12.7955C2.74353 12.5845 2.625 12.2984 2.625 12C2.625 11.7016 2.74353 11.4155 2.9545 11.2045C3.16548 10.9935 3.45163 10.875 3.75 10.875H11.5312L9.70406 9.04594C9.59942 8.94129 9.5164 8.81706 9.45977 8.68033C9.40314 8.5436 9.37399 8.39706 9.37399 8.24906C9.37399 7.95018 9.49272 7.66353 9.70406 7.45219C9.91541 7.24084 10.2021 7.12211 10.5009 7.12211C10.7998 7.12211 11.0865 7.24084 11.2978 7.45219L15.0478 11.2022C15.1526 11.3068 15.2356 11.4311 15.2923 11.5679C15.3489 11.7047 15.3779 11.8514 15.3778 11.9995C15.3776 12.1475 15.3482 12.2941 15.2912 12.4308C15.2343 12.5675 15.1509 12.6915 15.0459 12.7959ZM20.25 2.625H14.25C13.9516 2.625 13.6655 2.74353 13.4545 2.9545C13.2435 3.16548 13.125 3.45163 13.125 3.75C13.125 4.04837 13.2435 4.33452 13.4545 4.5455C13.6655 4.75647 13.9516 4.875 14.25 4.875H19.125V19.125H14.25C13.9516 19.125 13.6655 19.2435 13.4545 19.4545C13.2435 19.6655 13.125 19.9516 13.125 20.25C13.125 20.5484 13.2435 20.8345 13.4545 21.0455C13.6655 21.2565 13.9516 21.375 14.25 21.375H20.25C20.5484 21.375 20.8345 21.2565 21.0455 21.0455C21.2565 20.8345 21.375 20.5484 21.375 20.25V3.75C21.375 3.45163 21.2565 3.16548 21.0455 2.9545C20.8345 2.74353 20.5484 2.625 20.25 2.625Z"/> </svg>

<svg viewBox="0 0 24 24" xmlns="http://www.w3.org/2000/svg" aria-hidden="true" fill="currentColor"><path d="m15.046 12.796-3.75 3.75a1.127 1.127 0 1 1-1.594-1.594l1.83-1.827H3.75a1.125 1.125 0 1 1 0-2.25h7.781l-1.827-1.83a1.127 1.127 0 0 1 1.594-1.593l3.75 3.75a1.125 1.125 0 0 1-.002 1.594M20.25 2.625h-6a1.125 1.125 0 0 0 0 2.25h4.875v14.25H14.25a1.125 1.125 0 1 0 0 2.25h6a1.125 1.125 0 0 0 1.125-1.125V3.75a1.125 1.125 0 0 0-1.125-1.125"/></svg>
